local/src/web/app/images/logo/nt.svg

<svg data-name="Layer 1" xmlns="http://www.w3.org/2000/svg" viewBox="0 0 373.31 197.4"><path d="M351.81 21.5v154.4H21.5V21.5h330.31M373.31 0H0v197.4h373.31V0z" data-name="outside stroke"/><path d="M175.9 175.9H21.5V21.5h154.4v154.4zM53.54 154.41h21.69v-79l45.35 79h23.28V43h-21.69v77.68L77.95 43H53.54v111.41z" data-name="N Compound Path"/><path fill="none" d="M197.47 21.5h154.41v154.41H197.47z" data-name="transparent container"/><path d="M319.79 43v19.72h-33.33v91.68H263V62.72h-33.45V43h90.25z" data-name="T"/><path d="M175.9 21.5h21.5v154.41h-21.5z"/></svg>

<svg id="Layer_1" data-name="Layer 1" xmlns="http://www.w3.org/2000/svg" viewBox="0 0 373.31 197.4"><defs><style>.cls-1{fill:none;}</style></defs><title>nt</title><g id="outside_stroke" data-name="outside stroke"><path d="M351.81,21.5V175.9H21.5V21.5H351.81M373.31,0H0V197.4H373.31V0h0Z" transform="translate(0 0)"/></g><g id="N_Compound_Path" data-name="N Compound Path"><path d="M175.9,175.9H21.5V21.5H175.9V175.9ZM53.54,154.41H75.23v-79l45.35,79h23.28V43H122.17v77.68L77.95,43H53.54V154.41Z" transform="translate(0 0)"/></g><g id="T"><g id="transparent_container" data-name="transparent container"><rect class="cls-1" x="197.47" y="21.5" width="154.41" height="154.41"/></g><g id="T-2" data-name="T"><path d="M319.79,43V62.72H286.46v91.68H263V62.72H229.55V43h90.25Z" transform="translate(0 0)"/></g></g><rect id="Divider" x="175.9" y="21.5" width="21.5" height="154.41"/></svg>
